X:1
T:The Forester
C:Traditional
M:4/4
L:1/4
Q:1/4=120
K:G
G/2A/2B/2c/2 d2 | c/2B/2c/2d/2 e2 | d/2c/2B/2A/2 G2 | B/2c/2d/2e/2 f2 |
g/2f/2e/2d/2 e2 | c/2d/2e/2f/2 g2 | f/2e/2d/2c/2 B2 | A/2G/2F/2G/2 G2 |]
